icons/14x14_arrow_right_outline.svg

<svg xmlns="http://www.w3.org/2000/svg" width="14" height="14" viewBox="0 0 14 14">
  <path fill-rule="evenodd" d="M9.04727305,5.9551845 L7.88954613,4.78361162 C7.48634246,4.37558579 7.48634246,3.71404521 7.88954613,3.30601937 C8.29274981,2.89799354 8.94647213,2.89799354 9.34967581,3.30601937 L13,7 L9.34967581,10.6939806 C8.94647213,11.1020065 8.29274981,11.1020065 7.88954613,10.6939806 C7.48634246,10.2859548 7.48634246,9.62441421 7.88954613,9.21638838 L9.04727305,8.0448155 L2.0324676,8.0448155 C1.46225149,8.0448155 1,7.57703567 1,7 C1,6.42296433 1.46225149,5.9551845 2.0324676,5.9551845 L9.04727305,5.9551845 Z"/>
</svg>

<svg width="14" height="14" fill="none" xmlns="http://www.w3.org/2000/svg"><path fill-rule="evenodd" clip-rule="evenodd" d="M9.047 5.955 7.89 4.784a1.054 1.054 0 0 1 0-1.478 1.024 1.024 0 0 1 1.46 0L13 7l-3.65 3.694a1.024 1.024 0 0 1-1.46 0 1.054 1.054 0 0 1 0-1.478l1.157-1.171H2.032C1.462 8.045 1 7.577 1 7s.462-1.045 1.032-1.045h7.015Z" fill="#000"/></svg>
